bernoullicharts/exp_-x_alt_series__bound.svg

<?xml version="1.0" encoding="utf-8" standalone="no"?>
<!DOCTYPE svg PUBLIC "-//W3C//DTD SVG 1.1//EN"
  "http://www.w3.org/Graphics/SVG/1.1/DTD/svg11.dtd">
<!-- Created with matplotlib (https://matplotlib.org/) -->
<svg height="345.6pt" version="1.1" viewBox="0 0 460.8 345.6" width="460.8pt" xmlns="http://www.w3.org/2000/svg" xmlns:xlink="http://www.w3.org/1999/xlink">
 <defs>
  <style type="text/css">
*{stroke-linecap:butt;stroke-linejoin:round;}
  </style>
 </defs>
 <g id="figure_1">
  <g id="patch_1">
   <path d="M 0 345.6 
L 460.8 345.6 
L 460.8 0 
L 0 0 
z
" style="fill:#ffffff;"/>
  </g>
  <g id="axes_1">
   <g id="patch_2">
    <path d="M 57.6 307.584 
L 414.72 307.584 
L 414.72 41.472 
L 57.6 41.472 
z
" style="fill:#ffffff;"/>
   </g>
   <g id="matplotlib.axis_1">
    <g id="xtick_1">
     <g id="line2d_1">
      <defs>
       <path d="M 0 0 
L 0 3.5 
" id="mba9727e0ab" style="stroke:#000000;stroke-width:0.8;"/>
      </defs>
      <g>
       <use style="stroke:#000000;stroke-width:0.8;" x="73.800255" xlink:href="#mba9727e0ab" y="307.584"/>
      </g>
     </g>
     <g id="text_1">
      <text style="font-family:DejaVu Sans;font-size:10px;font-style:normal;font-weight:normal;text-anchor:middle;" transform="rotate(-0, 73.800255, 322.182437)" x="73.800255" y="322.182437">0.0</text>
     </g>
    </g>
    <g id="xtick_2">
     <g id="line2d_2">
      <g>
       <use style="stroke:#000000;stroke-width:0.8;" x="138.744153" xlink:href="#mba9727e0ab" y="307.584"/>
      </g>
     </g>
     <g id="text_2">
      <text style="font-family:DejaVu Sans;font-size:10px;font-style:normal;font-weight:normal;text-anchor:middle;" transform="rotate(-0, 138.744153, 322.182437)" x="138.744153" y="322.182437">0.2</text>
     </g>
    </g>
    <g id="xtick_3">
     <g id="line2d_3">
      <g>
       <use style="stroke:#000000;stroke-width:0.8;" x="203.688051" xlink:href="#mba9727e0ab" y="307.584"/>
      </g>
     </g>
     <g id="text_3">
      <text style="font-family:DejaVu Sans;font-size:10px;font-style:normal;font-weight:normal;text-anchor:middle;" transform="rotate(-0, 203.688051, 322.182437)" x="203.688051" y="322.182437">0.4</text>
     </g>
    </g>
    <g id="xtick_4">
     <g id="line2d_4">
      <g>
       <use style="stroke:#000000;stroke-width:0.8;" x="268.631949" xlink:href="#mba9727e0ab" y="307.584"/>
      </g>
     </g>
     <g id="text_4">
      <text style="font-family:DejaVu Sans;font-size:10px;font-style:normal;font-weight:normal;text-anchor:middle;" transform="rotate(-0, 268.631949, 322.182437)" x="268.631949" y="322.182437">0.6</text>
     </g>
    </g>
    <g id="xtick_5">
     <g id="line2d_5">
      <g>
       <use style="stroke:#000000;stroke-width:0.8;" x="333.575847" xlink:href="#mba9727e0ab" y="307.584"/>
      </g>
     </g>
     <g id="text_5">
      <text style="font-family:DejaVu Sans;font-size:10px;font-style:normal;font-weight:normal;text-anchor:middle;" transform="rotate(-0, 333.575847, 322.182437)" x="333.575847" y="322.182437">0.8</text>
     </g>
    </g>
    <g id="xtick_6">
     <g id="line2d_6">
      <g>
       <use style="stroke:#000000;stroke-width:0.8;" x="398.519745" xlink:href="#mba9727e0ab" y="307.584"/>
      </g>
     </g>
     <g id="text_6">
      <text style="font-family:DejaVu Sans;font-size:10px;font-style:normal;font-weight:normal;text-anchor:middle;" transform="rotate(-0, 398.519745, 322.182437)" x="398.519745" y="322.182437">1.0</text>
     </g>
    </g>
    <g id="text_7">
     <text style="font-family:DejaVu Sans;font-size:10px;font-style:normal;font-weight:normal;text-anchor:middle;" transform="rotate(-0, 236.16, 335.860562)" x="236.16" y="335.860562">Input Coin's Heads Probability (λ)</text>
    </g>
   </g>
   <g id="matplotlib.axis_2">
    <g id="ytick_1">
     <g id="line2d_7">
      <defs>
       <path d="M 0 0 
L -3.5 0 
" id="ma1a1ae0b00" style="stroke:#000000;stroke-width:0.8;"/>
      </defs>
      <g>
       <use style="stroke:#000000;stroke-width:0.8;" x="57.6" xlink:href="#ma1a1ae0b00" y="295.493173"/>
      </g>
     </g>
     <g id="text_8">
      <text style="font-family:DejaVu Sans;font-size:10px;font-style:normal;font-weight:normal;text-anchor:end;" transform="rotate(-0, 50.6, 299.292392)" x="50.6" y="299.292392">0.0</text>
     </g>
    </g>
    <g id="ytick_2">
     <g id="line2d_8">
      <g>
       <use style="stroke:#000000;stroke-width:0.8;" x="57.6" xlink:href="#ma1a1ae0b00" y="251.054309"/>
      </g>
     </g>
     <g id="text_9">
      <text style="font-family:DejaVu Sans;font-size:10px;font-style:normal;font-weight:normal;text-anchor:end;" transform="rotate(-0, 50.6, 254.853528)" x="50.6" y="254.853528">0.5</text>
     </g>
    </g>
    <g id="ytick_3">
     <g id="line2d_9">
      <g>
       <use style="stroke:#000000;stroke-width:0.8;" x="57.6" xlink:href="#ma1a1ae0b00" y="206.615446"/>
      </g>
     </g>
     <g id="text_10">
      <text style="font-family:DejaVu Sans;font-size:10px;font-style:normal;font-weight:normal;text-anchor:end;" transform="rotate(-0, 50.6, 210.414665)" x="50.6" y="210.414665">1.0</text>
     </g>
    </g>
    <g id="ytick_4">
     <g id="line2d_10">
      <g>
       <use style="stroke:#000000;stroke-width:0.8;" x="57.6" xlink:href="#ma1a1ae0b00" y="162.176582"/>
      </g>
     </g>
     <g id="text_11">
      <text style="font-family:DejaVu Sans;font-size:10px;font-style:normal;font-weight:normal;text-anchor:end;" transform="rotate(-0, 50.6, 165.975801)" x="50.6" y="165.975801">1.5</text>
     </g>
    </g>
    <g id="ytick_5">
     <g id="line2d_11">
      <g>
       <use style="stroke:#000000;stroke-width:0.8;" x="57.6" xlink:href="#ma1a1ae0b00" y="117.737719"/>
      </g>
     </g>
     <g id="text_12">
      <text style="font-family:DejaVu Sans;font-size:10px;font-style:normal;font-weight:normal;text-anchor:end;" transform="rotate(-0, 50.6, 121.536938)" x="50.6" y="121.536938">2.0</text>
     </g>
    </g>
    <g id="ytick_6">
     <g id="line2d_12">
      <g>
       <use style="stroke:#000000;stroke-width:0.8;" x="57.6" xlink:href="#ma1a1ae0b00" y="73.298855"/>
      </g>
     </g>
     <g id="text_13">
      <text style="font-family:DejaVu Sans;font-size:10px;font-style:normal;font-weight:normal;text-anchor:end;" transform="rotate(-0, 50.6, 77.098074)" x="50.6" y="77.098074">2.5</text>
     </g>
    </g>
    <g id="text_14">
     <text style="font-family:DejaVu Sans;font-size:10px;font-style:normal;font-weight:normal;text-anchor:middle;" transform="rotate(-90, 28.617187, 174.528)" x="28.617187" y="174.528">Coin Flips Needed</text>
    </g>
   </g>
   <g id="line2d_13">
    <path clip-path="url(#paa22ac2e0f)" d="M 73.832727 206.628777 
L 77.112066 207.969755 
L 80.391405 209.300204 
L 83.670744 210.62017 
L 86.950083 211.929699 
L 90.229421 213.228835 
L 93.50876 214.517627 
L 96.788099 215.796118 
L 100.067438 217.064356 
L 103.346777 218.322385 
L 106.626116 219.570253 
L 109.905455 220.808005 
L 113.184793 222.035687 
L 116.464132 223.253345 
L 119.743471 224.461025 
L 123.02281 225.658773 
L 126.302149 226.846636 
L 129.581488 228.024659 
L 132.860826 229.192888 
L 136.140165 230.35137 
L 139.419504 231.50015 
L 142.698843 232.639275 
L 145.978182 233.76879 
L 149.257521 234.888743 
L 152.53686 235.999178 
L 155.816198 237.100142 
L 159.095537 238.191681 
L 162.374876 239.27384 
L 165.654215 240.346667 
L 168.933554 241.410207 
L 172.212893 242.464506 
L 175.492231 243.50961 
L 178.77157 244.545565 
L 182.050909 245.572417 
L 185.330248 246.590212 
L 188.609587 247.598996 
L 191.888926 248.598815 
L 195.168264 249.589714 
L 198.447603 250.57174 
L 201.726942 251.544938 
L 205.006281 252.509355 
L 208.28562 253.465035 
L 211.564959 254.412025 
L 214.844298 255.35037 
L 218.123636 256.280116 
L 221.402975 257.201309 
L 224.682314 258.113994 
L 227.961653 259.018217 
L 231.240992 259.914023 
L 234.520331 260.801458 
L 237.799669 261.680567 
L 241.079008 262.551396 
L 244.358347 263.413989 
L 247.637686 264.268393 
L 250.917025 265.114652 
L 254.196364 265.952812 
L 257.475702 266.782918 
L 260.755041 267.605015 
L 264.03438 268.419147 
L 267.313719 269.225361 
L 270.593058 270.0237 
L 273.872397 270.81421 
L 277.151736 271.596935 
L 280.431074 272.37192 
L 283.710413 273.139211 
L 286.989752 273.89885 
L 290.269091 274.650884 
L 293.54843 275.395356 
L 296.827769 276.132311 
L 300.107107 276.861793 
L 303.386446 277.583847 
L 306.665785 278.298516 
L 309.945124 279.005845 
L 313.224463 279.705877 
L 316.503802 280.398657 
L 319.78314 281.084229 
L 323.062479 281.762636 
L 326.341818 282.433923 
L 329.621157 283.098132 
L 332.900496 283.755307 
L 336.179835 284.405492 
L 339.459174 285.04873 
L 342.738512 285.685065 
L 346.017851 286.314539 
L 349.29719 286.937196 
L 352.576529 287.553078 
L 355.855868 288.16223 
L 359.135207 288.764692 
L 362.414545 289.360509 
L 365.693884 289.949723 
L 368.973223 290.532376 
L 372.252562 291.108511 
L 375.531901 291.678171 
L 378.81124 292.241397 
L 382.090579 292.798231 
L 385.369917 293.348716 
L 388.649256 293.892894 
L 391.928595 294.430806 
L 395.207934 294.962494 
L 398.487273 295.488 
" style="fill:none;stroke:#1f77b4;stroke-linecap:square;stroke-width:1.5;"/>
   </g>
   <g id="line2d_14">
    <path clip-path="url(#paa22ac2e0f)" d="M 73.832727 206.615446 
L 77.112066 205.193402 
L 80.391405 204.837891 
L 83.670744 204.126869 
L 86.950083 203.238092 
L 90.229421 203.238092 
L 93.50876 199.149717 
L 96.788099 200.394005 
L 100.067438 199.860739 
L 103.346777 198.083184 
L 106.626116 197.372162 
L 109.905455 197.372162 
L 113.184793 195.239097 
L 116.464132 194.70583 
L 119.743471 193.461542 
L 123.02281 192.217254 
L 126.302149 190.4397 
L 129.581488 189.017656 
L 132.860826 187.773368 
L 136.140165 184.218259 
L 139.419504 187.595612 
L 142.698843 184.396014 
L 145.978182 185.107036 
L 149.257521 182.262949 
L 152.53686 184.57377 
L 155.816198 180.840905 
L 159.095537 178.530084 
L 162.374876 178.174573 
L 165.654215 178.352329 
L 168.933554 181.196416 
L 172.212893 172.130888 
L 175.492231 172.84191 
L 178.77157 176.219263 
L 182.050909 172.664154 
L 185.330248 170.708844 
L 188.609587 168.042512 
L 191.888926 169.109045 
L 195.168264 162.887604 
L 198.447603 162.887604 
L 201.726942 162.532093 
L 205.006281 164.487403 
L 208.28562 160.221272 
L 211.564959 160.576783 
L 214.844298 156.132897 
L 218.123636 152.400032 
L 221.402975 156.666163 
L 224.682314 153.822076 
L 227.961653 150.089211 
L 231.240992 151.155744 
L 234.520331 148.844923 
L 237.799669 148.311657 
L 241.079008 139.246129 
L 244.358347 143.51226 
L 247.637686 142.801238 
L 250.917025 143.51226 
L 254.196364 137.468574 
L 257.475702 137.290819 
L 260.755041 132.846932 
L 264.03438 134.446732 
L 267.313719 136.579797 
L 270.593058 130.536112 
L 273.872397 128.936312 
L 277.151736 130.713867 
L 280.431074 125.736714 
L 283.710413 129.291823 
L 286.989752 119.870784 
L 290.269091 116.848942 
L 293.54843 126.269981 
L 296.827769 113.293833 
L 300.107107 118.270985 
L 303.386446 111.160767 
L 306.665785 112.049544 
L 309.945124 115.071387 
L 313.224463 107.250147 
L 316.503802 107.072392 
L 319.78314 105.294837 
L 323.062479 99.784418 
L 326.341818 102.272994 
L 329.621157 101.561973 
L 332.900496 90.185624 
L 336.179835 94.62951 
L 339.459174 90.185624 
L 342.738512 90.71889 
L 346.017851 85.386226 
L 349.29719 87.163781 
L 352.576529 85.030715 
L 355.855868 82.186628 
L 359.135207 75.609676 
L 362.414545 79.164785 
L 365.693884 74.543144 
L 368.973223 77.564986 
L 372.252562 69.388235 
L 375.531901 69.388235 
L 378.81124 76.853964 
L 382.090579 62.100262 
L 385.369917 67.788436 
L 388.649256 59.789441 
L 391.928595 60.855974 
L 395.207934 54.101266 
L 398.487273 53.568 
" style="fill:none;stroke:#ff7f0e;stroke-linecap:square;stroke-width:1.5;"/>
   </g>
   <g id="patch_3">
    <path d="M 57.6 307.584 
L 57.6 41.472 
" style="fill:none;stroke:#000000;stroke-linecap:square;stroke-linejoin:miter;stroke-width:0.8;"/>
   </g>
   <g id="patch_4">
    <path d="M 414.72 307.584 
L 414.72 41.472 
" style="fill:none;stroke:#000000;stroke-linecap:square;stroke-linejoin:miter;stroke-width:0.8;"/>
   </g>
   <g id="patch_5">
    <path d="M 57.6 307.584 
L 414.72 307.584 
" style="fill:none;stroke:#000000;stroke-linecap:square;stroke-linejoin:miter;stroke-width:0.8;"/>
   </g>
   <g id="patch_6">
    <path d="M 57.6 41.472 
L 414.72 41.472 
" style="fill:none;stroke:#000000;stroke-linecap:square;stroke-linejoin:miter;stroke-width:0.8;"/>
   </g>
   <g id="text_15">
    <text style="font-family:DejaVu Sans;font-size:12px;font-style:normal;font-weight:normal;text-anchor:middle;" transform="rotate(-0, 236.16, 35.472)" x="236.16" y="35.472">Coin Flips for exp(-x)</text>
   </g>
   <g id="legend_1">
    <g id="patch_7">
     <path d="M 64.6 78.82825 
L 288.970312 78.82825 
Q 290.970312 78.82825 290.970312 76.82825 
L 290.970312 48.472 
Q 290.970312 46.472 288.970312 46.472 
L 64.6 46.472 
Q 62.6 46.472 62.6 48.472 
L 62.6 76.82825 
Q 62.6 78.82825 64.6 78.82825 
z
" style="fill:#ffffff;opacity:0.8;stroke:#cccccc;stroke-linejoin:miter;"/>
    </g>
    <g id="line2d_15">
     <path d="M 66.6 54.570437 
L 86.6 54.570437 
" style="fill:none;stroke:#1f77b4;stroke-linecap:square;stroke-width:1.5;"/>
    </g>
    <g id="line2d_16"/>
    <g id="text_16">
     <text style="font-family:DejaVu Sans;font-size:10px;font-style:normal;font-weight:normal;text-anchor:start;" transform="rotate(-0, 94.6, 58.070437)" x="94.6" y="58.070437">Coin Flip Lower Bound</text>
    </g>
    <g id="line2d_17">
     <path d="M 66.6 69.248562 
L 86.6 69.248562 
" style="fill:none;stroke:#ff7f0e;stroke-linecap:square;stroke-width:1.5;"/>
    </g>
    <g id="line2d_18"/>
    <g id="text_17">
     <text style="font-family:DejaVu Sans;font-size:10px;font-style:normal;font-weight:normal;text-anchor:start;" transform="rotate(-0, 94.6, 72.748562)" x="94.6" y="72.748562">Avg. Coins Flipped exp(-x) (Alt. Series)</text>
    </g>
   </g>
  </g>
 </g>
 <defs>
  <clipPath id="paa22ac2e0f">
   <rect height="266.112" width="357.12" x="57.6" y="41.472"/>
  </clipPath>
 </defs>
</svg>

<svg height="460.8" viewBox="0 0 460.8 345.6" width="614.4" xmlns="http://www.w3.org/2000/svg" xmlns:xlink="http://www.w3.org/1999/xlink"><defs><style>*{stroke-linecap:butt;stroke-linejoin:round}</style></defs><g id="figure_1"><path d="M0 345.6h460.8V0H0z" fill="#fff" id="patch_1"/><g id="axes_1"><path d="M57.6 307.584h357.12V41.472H57.6z" fill="#fff" id="patch_2"/><g id="matplotlib.axis_1"><g id="xtick_1"><g id="line2d_1"><defs><path d="M0 0v3.5" id="mba9727e0ab" stroke="#000" stroke-width=".8"/></defs><use x="73.8" xlink:href="#mba9727e0ab" y="307.584" stroke="#000" stroke-width=".8"/></g><text x="73.8" y="322.182" font-family="DejaVu Sans" font-size="10" font-weight="400" text-anchor="middle" id="text_1">0.0</text></g><g id="xtick_2"><use x="138.744" xlink:href="#mba9727e0ab" y="307.584" stroke="#000" stroke-width=".8" id="line2d_2"/><text x="138.744" y="322.182" font-family="DejaVu Sans" font-size="10" font-weight="400" text-anchor="middle" id="text_2">0.2</text></g><g id="xtick_3"><use x="203.688" xlink:href="#mba9727e0ab" y="307.584" stroke="#000" stroke-width=".8" id="line2d_3"/><text x="203.688" y="322.182" font-family="DejaVu Sans" font-size="10" font-weight="400" text-anchor="middle" id="text_3">0.4</text></g><g id="xtick_4"><use x="268.632" xlink:href="#mba9727e0ab" y="307.584" stroke="#000" stroke-width=".8" id="line2d_4"/><text x="268.632" y="322.182" font-family="DejaVu Sans" font-size="10" font-weight="400" text-anchor="middle" id="text_4">0.6</text></g><g id="xtick_5"><use x="333.576" xlink:href="#mba9727e0ab" y="307.584" stroke="#000" stroke-width=".8" id="line2d_5"/><text x="333.576" y="322.182" font-family="DejaVu Sans" font-size="10" font-weight="400" text-anchor="middle" id="text_5">0.8</text></g><g id="xtick_6"><use x="398.52" xlink:href="#mba9727e0ab" y="307.584" stroke="#000" stroke-width=".8" id="line2d_6"/><text x="398.52" y="322.182" font-family="DejaVu Sans" font-size="10" font-weight="400" text-anchor="middle" id="text_6">1.0</text></g><text x="236.16" y="335.861" font-family="DejaVu Sans" font-size="10" font-weight="400" text-anchor="middle" id="text_7">Input Coin&apos;s Heads Probability (λ)</text></g><g id="matplotlib.axis_2"><g id="ytick_1"><g id="line2d_7"><defs><path d="M0 0h-3.5" id="ma1a1ae0b00" stroke="#000" stroke-width=".8"/></defs><use x="57.6" xlink:href="#ma1a1ae0b00" y="295.493" stroke="#000" stroke-width=".8"/></g><text x="50.6" y="299.292" font-family="DejaVu Sans" font-size="10" font-weight="400" text-anchor="end" id="text_8">0.0</text></g><g id="ytick_2"><use x="57.6" xlink:href="#ma1a1ae0b00" y="251.054" stroke="#000" stroke-width=".8" id="line2d_8"/><text x="50.6" y="254.854" font-family="DejaVu Sans" font-size="10" font-weight="400" text-anchor="end" id="text_9">0.5</text></g><g id="ytick_3"><use x="57.6" xlink:href="#ma1a1ae0b00" y="206.615" stroke="#000" stroke-width=".8" id="line2d_9"/><text x="50.6" y="210.415" font-family="DejaVu Sans" font-size="10" font-weight="400" text-anchor="end" id="text_10">1.0</text></g><g id="ytick_4"><use x="57.6" xlink:href="#ma1a1ae0b00" y="162.177" stroke="#000" stroke-width=".8" id="line2d_10"/><text x="50.6" y="165.976" font-family="DejaVu Sans" font-size="10" font-weight="400" text-anchor="end" id="text_11">1.5</text></g><g id="ytick_5"><use x="57.6" xlink:href="#ma1a1ae0b00" y="117.738" stroke="#000" stroke-width=".8" id="line2d_11"/><text x="50.6" y="121.537" font-family="DejaVu Sans" font-size="10" font-weight="400" text-anchor="end" id="text_12">2.0</text></g><g id="ytick_6"><use x="57.6" xlink:href="#ma1a1ae0b00" y="73.299" stroke="#000" stroke-width=".8" id="line2d_12"/><text x="50.6" y="77.098" font-family="DejaVu Sans" font-size="10" font-weight="400" text-anchor="end" id="text_13">2.5</text></g><text transform="rotate(-90 28.617 174.528)" x="28.617" y="174.528" font-family="DejaVu Sans" font-size="10" font-weight="400" text-anchor="middle" id="text_14">Coin Flips Needed</text></g><path clip-path="url(#paa22ac2e0f)" d="M73.833 206.629l3.28 1.34 3.278 1.331 3.28 1.32 3.28 1.31 3.278 1.299 3.28 1.289 3.28 1.278 3.278 1.268 3.28 1.258 3.28 1.248 3.278 1.238 3.28 1.228 3.28 1.217 3.278 1.208 3.28 1.198 3.28 1.188 3.278 1.178 3.28 1.168 3.28 1.158 3.279 1.15 3.279 1.138 3.28 1.13 3.279 1.12 3.279 1.11 3.28 1.101 3.279 1.092 3.279 1.082 3.28 1.073 3.279 1.063 3.279 1.055 3.28 1.045 3.279 1.036 3.279 1.026 3.28 1.018 3.279 1.009 3.279 1 3.28.99 3.279.983 3.279.973 3.28.964 3.279.956 3.279.947 3.28.938 3.279.93 3.279.921 3.28.913 3.279.904 3.279.896 3.28.887 3.279.88 3.279.87 3.28.863 3.279.854 3.279.847 3.28.838 3.279.83 3.279.822 3.28.814 3.279.806 3.28.799 3.278.79 3.28.783 3.28.775 3.278.767 3.28.76 3.28.752 3.278.744 3.28.737 3.28.73 3.278.722 3.28.715 3.28.707 3.278.7 3.28.693 3.28.685 3.278.679 3.28.67 3.28.665 3.278.657 3.28.65 3.28.644 3.279.636 3.279.63 3.28.622 3.279.616 3.279.61 3.28.602 3.279.596 3.279.589 3.28.582 3.279.577 3.279.57 3.28.562 3.279.557 3.279.55 3.28.545 3.279.538 3.279.531 3.28.526" fill="none" stroke="#1f77b4" stroke-linecap="square" stroke-width="1.5" id="line2d_13"/><path clip-path="url(#paa22ac2e0f)" d="M73.833 206.615l3.28-1.422 3.278-.355 3.28-.711 3.28-.889h3.278l3.28-4.088 3.28 1.244 3.278-.533 3.28-1.778 3.28-.71h3.278l3.28-2.134 3.28-.533 3.278-1.244 3.28-1.245 3.28-1.777 3.278-1.422 3.28-1.245 3.28-3.555 3.279 3.378 3.279-3.2 3.28.711 3.279-2.844 3.279 2.31 3.28-3.732 3.279-2.31 3.279-.356 3.28.177 3.279 2.844 3.279-9.065 3.28.71 3.279 3.378 3.279-3.555 3.28-1.955 3.279-2.666 3.279 1.066 3.28-6.221h3.279l3.279-.356 3.28 1.955 3.279-4.266 3.279.356 3.28-4.444 3.279-3.733 3.279 4.266 3.28-2.844 3.279-3.733 3.279 1.067 3.28-2.311 3.279-.533 3.279-9.066 3.28 4.266 3.279-.71 3.279.71 3.28-6.043 3.279-.178 3.279-4.444 3.28 1.6 3.279 2.133 3.28-6.044 3.278-1.6 3.28 1.778 3.28-4.977 3.278 3.555 3.28-9.421 3.28-3.022 3.278 9.421 3.28-12.976 3.28 4.977 3.278-7.11 3.28.889 3.28 3.021 3.278-7.82 3.28-.179 3.28-1.777 3.278-5.51 3.28 2.488 3.28-.711 3.278-11.376 3.28 4.444 3.28-4.444 3.279.533 3.279-5.333 3.28 1.778 3.279-2.133 3.279-2.844 3.28-6.577 3.279 3.555 3.279-4.622 3.28 3.022 3.279-8.177h3.279l3.28 7.466L382.09 62.1l3.279 5.688 3.28-7.999 3.279 1.067 3.279-6.755 3.28-.533" fill="none" stroke="#ff7f0e" stroke-linecap="square" stroke-width="1.5" id="line2d_14"/><path d="M57.6 307.584V41.472" fill="none" stroke="#000" stroke-linecap="square" stroke-width=".8" id="patch_3"/><path d="M414.72 307.584V41.472" fill="none" stroke="#000" stroke-linecap="square" stroke-width=".8" id="patch_4"/><path d="M57.6 307.584h357.12" fill="none" stroke="#000" stroke-linecap="square" stroke-width=".8" id="patch_5"/><path d="M57.6 41.472h357.12" fill="none" stroke="#000" stroke-linecap="square" stroke-width=".8" id="patch_6"/><text x="236.16" y="35.472" font-family="DejaVu Sans" font-size="12" font-weight="400" text-anchor="middle" id="text_15">Coin Flips for exp(-x)</text><g id="legend_1"><path d="M64.6 78.828h224.37q2 0 2-2V48.472q0-2-2-2H64.6q-2 0-2 2v28.356q0 2 2 2z" fill="#fff" opacity=".8" stroke="#ccc" id="patch_7"/><path d="M66.6 54.57h20" fill="none" stroke="#1f77b4" stroke-linecap="square" stroke-width="1.5" id="line2d_15"/><text x="94.6" y="58.07" font-family="DejaVu Sans" font-size="10" font-weight="400" id="text_16">Coin Flip Lower Bound</text><path d="M66.6 69.249h20" fill="none" stroke="#ff7f0e" stroke-linecap="square" stroke-width="1.5" id="line2d_17"/><text x="94.6" y="72.749" font-family="DejaVu Sans" font-size="10" font-weight="400" id="text_17">Avg. Coins Flipped exp(-x) (Alt. Series)</text></g></g></g><defs><clipPath id="paa22ac2e0f"><path d="M57.6 41.472h357.12v266.112H57.6z"/></clipPath></defs></svg>
